X:526
T: WENN DU BEI MEIN SCHAETZCHEN KOMMST
N: E0510C
O: Europa, Mitteleuropa, Deutschland, Westfalen ?
R: Liebes - Lied
M: 2/4
L: 1/16
K: D
 | d2cBA2G2 | F2G2A4 |
d2cBA2G2 | F4E2z2 |
d2cBA2G2 | F2G2A4 |
F2D2E2C2 | D4D2z2 |
D2F2D2F2 | D2F2A4 |
C2E2C2E2 | C2E2G4 |
D2F2D2F2 | D2F2A4 |
F2D2E2C2 | D4D2z2

@@@ Tune index: 4176
